!!!OTL: 52c. Verfuehrung und Mord.
!!!ARE: Europa, Mitteleuropa, Deutschland, Franken
!!!SCT: E0052A
!!!TXL: @@DE
!!!YEM: Copyright 1995, estate of Helmut Schaffrath.
**kern	**text
*ICvox	*
*M3/4	*
*k[f#]	*
*G:	*
!Sehr mäßig.	!
!LO:TX:a:t=Aus Franken. Ditf. II, Nr. 45.	!
{8d	Es
=1	=1
8d	gieng
8f#	einſt
4.g	ein
8a	ver-
=2	=2
8a	-lieb-
8b	-tes
4.b}	Paar
{8g	im
=3	=3
8g	grü-
8b	-nen
8.ddL	Wald
16cc	.
8bJ	.
8a	ſpa-
=4	=4
4a	-ʒie-
4g	-ren;
8r}	.
{8d	Der
=5	=5
8d	Jüng-
8f#	-ling,
4.g	der
8a	ihr
=6	=6
8a	un-
8b	-treu
4.b}	war,
{8g	wollt
=7	=7
8g	ſie
8b	im
8.ddL	Wald
16cc	.
8bJ	.
8a	ver-
=8	=8
4a	-füh-
4g	-ren.
8r}	.
{8dd	Er
=9	=9
8ee	nahm
8cc	ſie
4.cc	bei
8ee	der
=10	=10
8dd	wei-
8b	-ßen
4.b}	Hand
{8dd	und
=11	=11
8ee	führt
8dd	ſie
4.cc	in's
8b	Ge-
=12	=12
4b/	-ſträu-
4a	-che;
8r}	.
{8d	er
=13	=13
8d	ſprach:
8g	Herʒ-
4.g	-al-
8a	-ler-
=14	=14
8a	-lieb-
8b	-ſte
4.b}	mein,
{8g	ge-
=15	=15
8g	-nieß
8b	du
8.ddL	dei-
16cc	.
8bJ	.
8a	-ne
=16	=16
4a	Freu-
4g	-de!
8r}	.
==	==
!!!AGN: erzaehlendes Volks - Lied, Sage, Mord, Verfuehrung, Ballade ?
!!!ONB: ESAC (Essen Associative Code) Database: ERK1
!!!AMT: simple triple
!!!AIN: vox
!!!EED: Helmut Schaffrath
!!!EEV: 1.0
!!!GTL: Sagen von Mordthaten, unschuldig Gesangeg und Hinrichtungen
!!!URL-scan: https://rosdok.uni-rostock.de/mcrviewer/recordIdentifier/rosdok_ppn745146120/iview2/phys_0245.iview2?x=-250.1417780126858&y=183.7102009197697&scale=0.5392104374602399&rotation=0&layout=singlePageLayout&logicalDiv=log_0009
!!!ENC: Anna Maria Matuszewska
!!!EEV: 2024/11/25
*-	*-
